assets/icons/24px/outline/entertainment-24px.svg

<svg width="24" height="24" viewBox="0 0 24 24" fill="none" xmlns="http://www.w3.org/2000/svg">
<path d="M3.00001 8C3.00001 6.11438 3.00001 5.17157 3.5858 4.58579C4.17158 4 5.11439 4 7.00001 4H17C18.8856 4 19.8284 4 20.4142 4.58579C21 5.17157 21 6.11438 21 8L21 12C21 13.8856 21 14.8284 20.4142 15.4142C19.8284 16 18.8856 16 17 16H7.00001C5.11439 16 4.17158 16 3.5858 15.4142C3.00001 14.8284 3.00001 13.8856 3.00001 12V8Z" stroke="white" stroke-width="2"/>
<path d="M6.5 16H17.5L18.0976 16.683C19.3479 18.1119 19.9731 18.8264 19.7068 19.4132C19.4406 20 18.4912 20 16.5924 20H7.40755C5.50879 20 4.55941 20 4.29315 19.4132C4.02688 18.8264 4.65206 18.1119 5.90241 16.683L6.5 16Z" stroke="white" stroke-width="2"/>
</svg>

<svg width="24" height="24" fill="none" xmlns="http://www.w3.org/2000/svg"><path d="M3 8c0-1.886 0-2.828.586-3.414C4.172 4 5.114 4 7 4h10c1.886 0 2.828 0 3.414.586C21 5.172 21 6.114 21 8v4c0 1.886 0 2.828-.586 3.414C19.828 16 18.886 16 17 16H7c-1.886 0-2.828 0-3.414-.586C3 14.828 3 13.886 3 12V8zm3.5 8h11l.598.683c1.25 1.429 1.875 2.143 1.609 2.73C19.44 20 18.49 20 16.592 20H7.408c-1.9 0-2.849 0-3.115-.587s.36-1.301 1.61-2.73L6.5 16z" stroke="#fff" stroke-width="2"/></svg>
